!!!!SEGMENT: Jos/Jos0602d-Missa_Lhomme_arme_sexti_toni-Sanctus.krn
!!!COM: Josquin des Prez
!!!CDT: ~1450-1521/08/27
!!!OPR: Missa L'homme arm&eacute; sexti toni
!!!ONM: 4
!!!OTL: Sanctus
!!!AGN: Mass; Sanctus
!!!SCT: NJE 6.2
!!!SCA: New Josquin Edition 6.2
!!!jrpid: Jos0602d
!!!voices: 4
!!!voices-OPR: 4(-6)
**kern	**text	**kern	**text	**kern	**text	**kern	**text
*staff4	*	*staff3	*	*staff2	*	*staff1	*
*Ivox	*	*Ivox	*	*Ivox	*	*Ivox	*
*I"Bassus	*	*I"Tenor	*	*I"Altus	*	*I"Superius	*
*I'B	*	*I'T	*	*I'A	*	*I'S	*
*>[A,B,C,D,E,F,G,D]	*	*>[A,B,C,D,E,F,G,D]	*	*>[A,B,C,D,E,F,G,D]	*	*>[A,B,C,D,E,F,G,D]	*
*>Sanctus[A]	*	*>Sanctus[A]	*	*>Sanctus[A]	*	*>Sanctus[A]	*
*>Pleni[B]	*	*>Pleni[B]	*	*>Pleni[B]	*	*>Pleni[B]	*
*>GloriaTua[C]	*	*>GloriaTua[C]	*	*>GloriaTua[C]	*	*>GloriaTua[C]	*
*>Osanna[D]	*	*>Osanna[D]	*	*>Osanna[D]	*	*>Osanna[D]	*
*>Benedictus[E]	*	*>Benedictus[E]	*	*>Benedictus[E]	*	*>Benedictus[E]	*
*>QuiVenit[F]	*	*>QuiVenit[F]	*	*>QuiVenit[F]	*	*>QuiVenit[F]	*
*>InNomine[G]	*	*>InNomine[G]	*	*>InNomine[G]	*	*>InNomine[G]	*
*>A	*	*>A	*	*>A	*	*>A	*
*clefF4	*	*clefGv2	*	*clefGv2	*	*clefG2	*
*k[b-]	*	*k[b-]	*	*k[b-]	*	*k[b-]	*
*M3/1	*	*M3/1	*	*M3/1	*	*M3/1	*
*met(O)	*	*met(O)	*	*met(O)	*	*met(O)	*
=1-	=1-	=1-	=1-	=1-	=1-	=1-	=1-
!!section: Sanctus
!!!OMD: Sanctus
!LO:TX:Z=7:t=[B&colon; add E-flat below staff to key sig.]	!	!	!	!	!	!	!
!	!	!LO:TX:Z=7:t=Duo Seraphim clamabant alter ad alterum (T-->A canon at the unison)	!	!	!	!	!
0FF	San-	0.r	.	0.r	.	[0.f	San-
1FF	-ctus	.	.	.	.	.	.
=2	=2	=2	=2	=2	=2	=2	=2
1FF	san-	0F	San-	0.r	.	0f]	.
1.BB-	.	.	.	.	.	.	.
.	.	1F	-ctus,	.	.	1d	.
2AA/	.	.	.	.	.	.	.
=3	=3	=3	=3	=3	=3	=3	=3
1AA	-ctus,	1F	san-	0.r	.	1c	-ctus,
0GG	san-	1.B-	.	.	.	1r	.
.	.	.	.	.	.	1g	san-
.	.	2A	.	.	.	.	.
=4	=4	=4	=4	=4	=4	=4	=4
[0.FF	.	1A	-ctus,	0F	San-	2a/	.
.	.	.	.	.	.	1cc	.
.	.	1.c	san-	.	.	.	.
.	.	.	.	.	.	2b-\	.
.	.	.	.	1F	-ctus	2a/	.
.	.	2B-	.	.	.	2g/	.
=5	=5	=5	=5	=5	=5	=5	=5
1FF]	.	1A	.	1F	san-	1f	.
0EE-	.	0G	.	1.B-	.	0g	.
.	.	.	.	2A/	.	.	.
=6	=6	=6	=6	=6	=6	=6	=6
0FF	-ctus,	1.F	.	1A	-tus,	0.c	-ctus,
.	.	.	.	1.c	san-	.	.
.	.	4E/	.	.	.	.	.
.	.	4D/	.	.	.	.	.
1r	.	[1C	.	.	.	.	.
.	.	.	.	2B-	.	.	.
=7	=7	=7	=7	=7	=7	=7	=7
0C	sanc-	2C/]	.	1A	.	1r	.
.	.	2D/	.	.	.	.	.
.	.	2E/	.	0G	.	1r	.
.	.	1F	.	.	.	.	.
1C	-tus,	.	.	.	.	1g	sanc-
.	.	2E/	.	.	.	.	.
=8	=8	=8	=8	=8	=8	=8	=8
0.FF	.	0F	-ctus,	1.F	.	1.a	.
.	.	.	.	4E/	.	1cc	.
.	.	.	.	4D/	.	.	.
.	.	1r	.	[1C	.	.	.
.	.	.	.	.	.	4b-\	.
.	.	.	.	.	.	4a/	.
=9	=9	=9	=9	=9	=9	=9	=9
1.C	do-	0.r	.	2C/]	.	1.g	.
.	.	.	.	2D/	.	.	.
.	.	.	.	2E/	.	.	.
2AA/	.	.	.	1F	.	2f/	.
2BB-/	.	.	.	.	.	1g	.
2C/	.	.	.	2E/	.	.	.
=10	=10	=10	=10	=10	=10	=10	=10
1.AA	.	1.c	do-	0F	-tus,	0a	-tus
2FF/	.	2A/	.	.	.	.	.
2GG/	.	2B-\	.	1r	.	1r	.
2AA/	-mi-	2c\	.	.	.	.	.
=11	=11	=11	=11	=11	=11	=11	=11
0FF	-nus	1.A	.	0.r	.	1.cc	do-
.	.	2F/	.	.	.	2a/	.
1r	.	2G/	.	.	.	2b-\	.
.	.	2A/	-mi-	.	.	2cc\	.
=12	=12	=12	=12	=12	=12	=12	=12
0FF	de-	0F	-nus,	1.c	do-	1.a	.
.	.	.	.	2A/	.	2f/	.
1r	.	1r	.	2B-\	.	2g/	.
.	.	.	.	2c\	.	2a/	-mi-
=13	=13	=13	=13	=13	=13	=13	=13
0FF	-us	0.r	.	1.A	.	2f/	-nus
.	.	.	.	.	.	1cc	de-
.	.	.	.	2F/	.	2a/	.
1r	.	.	.	2G/	.	2b-\	.
.	.	.	.	2A/	-mi-	2cc\	.
=14	=14	=14	=14	=14	=14	=14	=14
0FF	sa-	1.c	do-	0F	-nus,	1.a	us
.	.	2c\	-mi-	.	.	2.cc\	sa-
1F	.	1c	-nus	1r	.	.	.
.	.	.	.	.	.	4b-\	.
.	.	.	.	.	.	4a/	.
.	.	.	.	.	.	4g/	.
=15	=15	=15	=15	=15	=15	=15	=15
2BB-/	.	2d\	de-	0.r	.	2b-\	.
2.F\	.	1c	-us	.	.	2.a/	.
4E\	.	.	.	.	.	4g/	.
2F\	.	2A/	sa-	.	.	4f/	.
.	.	.	.	.	.	4e/	.
2G\	.	2B-\	.	.	.	2d/	.
2E\	.	2c\	.	.	.	2e/	.
=16	=16	=16	=16	=16	=16	=16	=16
2.F\	.	1A	-ba-	1.c	do-	2.c/	.
4E\	.	.	.	.	.	4d/	.
2.C/	.	0G	-oth,	.	.	4e/	.
.	.	.	.	.	.	4f/	.
.	.	.	.	2c\	-mi-	2.g/	.
4D\	.	.	.	.	.	.	.
2.E-i\	.	.	.	1c	-nus	.	.
.	.	.	.	.	.	4a/	.
.	.	.	.	.	.	2cc\	.
4D\	.	.	.	.	.	.	.
=17	=17	=17	=17	=17	=17	=17	=17
2BB-/	-ba-	0.F	sa-	2d\	de-	2b-\	.
1F	-oth,	.	.	1c	-us	2.a/	.
.	.	.	.	.	.	4g/	.
2FF/	sa-	.	.	2A/	sa-	4f/	.
.	.	.	.	.	.	4e/	.
2BB-/	.	.	.	2B-\	.	4d/	.
.	.	.	.	.	.	4c/	.
2AA/	.	.	.	2c\	.	[2a/	.
=18	=18	=18	=18	=18	=18	=18	=18
1FF	.	0.c	-ba-	1A	.	4a/]	.
.	.	.	.	.	.	4g/	.
.	.	.	.	.	.	2f/	.
0C	-ba-	.	.	0G	-ba-	2e/	.
.	.	.	.	.	.	1f	.
.	.	.	.	.	.	2e/	-ba-
=19	=19	=19	=19	=19	=19	=19	=19
0.FFl	-oth.	0.Al	-oth.	0.Fl	-oth.	0.fl	-oth.
!!LO:LB:i:g=z
=20||	=20||	=20||	=20||	=20||	=20||	=20||	=20||
*>B	*	*>B	*	*>B	*	*>B	*
*clefF4	*	*clefGv2	*	*clefGv2	*	*clefG2	*
*k[b-]	*	*k[b-]	*	*k[b-]	*	*k[b-]	*
*M2/1	*	*M2/1	*	*M2/1	*	*M2/1	*
*met(C|)	*	*met(C|)	*	*met(C|)	*	*met(C|)	*
!!!OMD: Pleni sunt celi
!!section: Pleni sunt celi
0r	.	0r	.	0r	.	1.g	Ple-
.	.	.	.	.	.	4f/	.
.	.	.	.	.	.	4e/	.
=21	=21	=21	=21	=21	=21	=21	=21
0r	.	0r	.	0r	.	2f/	.
.	.	.	.	.	.	2g/	.
.	.	.	.	.	.	1c	-ni,
=22	=22	=22	=22	=22	=22	=22	=22
0r	.	0r	.	1.c	Ple-	1r	.
.	.	.	.	.	.	[1g	ple-
.	.	.	.	4B-\	.	.	.
.	.	.	.	4A/	.	.	.
=23	=23	=23	=23	=23	=23	=23	=23
0r	.	0r	.	2B-\	.	1g]	.
.	.	.	.	2c\	.	.	.
.	.	.	.	1F	-ni,	1a	-ni
=24	=24	=24	=24	=24	=24	=24	=24
0r	.	0r	.	1r	.	2g/	sunt
.	.	.	.	.	.	1a	ce-
.	.	.	.	[1c	ple-	.	.
.	.	.	.	.	.	4g/	.
.	.	.	.	.	.	4f/	.
=25	=25	=25	=25	=25	=25	=25	=25
0r	.	0r	.	1c]	.	1e	.
.	.	.	.	1d	-ni	1d	-li,
=26	=26	=26	=26	=26	=26	=26	=26
0r	.	0r	.	2c\	sunt	1r	.
.	.	.	.	1d	ce-	.	.
.	.	.	.	.	.	[1a	ple-
.	.	.	.	4c\	.	.	.
.	.	.	.	4B-\	.	.	.
=27	=27	=27	=27	=27	=27	=27	=27
0r	.	0r	.	1A	.	1a]	.
.	.	.	.	1G	-li,	1b-	-ni
=28	=28	=28	=28	=28	=28	=28	=28
0r	.	0r	.	1r	.	2a/	sunt
.	.	.	.	.	.	1b-	ce-
.	.	.	.	[1d	ple-	.	.
.	.	.	.	.	.	4a/	.
.	.	.	.	.	.	4g/	.
=29	=29	=29	=29	=29	=29	=29	=29
0r	.	0r	.	1d]	.	1f	.
.	.	.	.	1e-	-ni	1g	-li,
=30	=30	=30	=30	=30	=30	=30	=30
0r	.	0r	.	2d\	sunt	1r	.
.	.	.	.	1e-i	ce-	.	.
.	.	.	.	.	.	1c	ce-
.	.	.	.	4d\	.	.	.
.	.	.	.	4c\	.	.	.
=31	=31	=31	=31	=31	=31	=31	=31
0r	.	0r	.	1B-	.	1d	-li
.	.	.	.	1c	-li,	1e	et
=32	=32	=32	=32	=32	=32	=32	=32
0r	.	0r	.	2r	.	1f	ter-
.	.	.	.	2F/	ce-	.	.
.	.	.	.	2G/	-li	2e/	.
.	.	.	.	2A/	et	[2f/	.
=33	=33	=33	=33	=33	=33	=33	=33
0r	.	0r	.	2.B-\	ter-	4f/]	.
.	.	.	.	.	.	4e/	.
.	.	.	.	.	.	4d/	.
.	.	.	.	4A/	.	4c/	.
.	.	.	.	4B-\	.	4d/	.
.	.	.	.	4A/	.	4c/	.
.	.	.	.	4B-\	.	[2g/	.
.	.	.	.	4G/	.	.	.
=34	=34	=34	=34	=34	=34	=34	=34
0r	.	0r	.	2.c\	.	4g/]	.
.	.	.	.	.	.	4f/	.
.	.	.	.	.	.	4e/	.
.	.	.	.	4B-\	.	4d/	.
.	.	.	.	4c\	.	4e/	.
.	.	.	.	4B-\	.	4d/	.
.	.	.	.	4c\	.	[2a/	.
.	.	.	.	4A/	.	.	.
=35	=35	=35	=35	=35	=35	=35	=35
0r	.	0r	.	2.d\	.	4a/]	.
.	.	.	.	.	.	4g/	.
.	.	.	.	.	.	4f/	.
.	.	.	.	4c\	.	4e/	.
.	.	.	.	2.A/	.	4f/	.
.	.	.	.	.	.	4e/	.
.	.	.	.	.	.	[2a/	.
.	.	.	.	4B-\	.	.	.
=36	=36	=36	=36	=36	=36	=36	=36
0r	.	0r	.	2.c\	.	2a/]	.
.	.	.	.	.	.	1g	.
.	.	.	.	4B-\	.	.	.
.	.	.	.	4G/	.	.	.
.	.	.	.	4A/	.	.	.
.	.	.	.	4B-\	.	[2f/	.
.	.	.	.	4c\	.	.	.
=37	=37	=37	=37	=37	=37	=37	=37
0r	.	0r	.	2d\	.	2f/]	.
.	.	.	.	1c	.	2e/	.
.	.	.	.	.	.	1d	.
.	.	.	.	2Bni\	.	.	.
=38	=38	=38	=38	=38	=38	=38	=38
0r	.	0r	.	0cl	-ra.	0cl	-ra.
!!LO:LB:i:g=z
=39||	=39||	=39||	=39||	=39||	=39||	=39||	=39||
*>C	*	*>C	*	*>C	*	*>C	*
*clefF4	*	*clefGv2	*	*clefGv2	*	*clefG2	*
*k[b-]	*	*k[b-]	*	*k[b-]	*	*k[b-]	*
*M2/1	*	*M2/1	*	*M2/1	*	*M2/1	*
*met(C|)	*	*met(C|)	*	*met(C|)	*	*met(C|)	*
!!!OMD: Gloria tua
!!section: Gloria tua
!	!	!LO:TX:Z=7:t=Music of the Pleni, down a 5th	!	!	!	!	!
0r	.	1.c	Glo-	0r	.	0r	.
.	.	4B-\	.	.	.	.	.
.	.	4A/	.	.	.	.	.
=40	=40	=40	=40	=40	=40	=40	=40
0r	.	2B-\	.	0r	.	0r	.
.	.	2c\	-ri-	.	.	.	.
.	.	1F	a-,	.	.	.	.
=41	=41	=41	=41	=41	=41	=41	=41
1.F	Glo-	1r	.	0r	.	0r	.
.	.	[1c	glo-	.	.	.	.
4E-i\	.	.	.	.	.	.	.
4D\	.	.	.	.	.	.	.
=42	=42	=42	=42	=42	=42	=42	=42
2E-i\	.	1c]	.	0r	.	0r	.
2F\	-ri-	.	.	.	.	.	.
1BB-	-a,	1d	-ri-	.	.	.	.
=43	=43	=43	=43	=43	=43	=43	=43
1r	.	2c\	-a	0r	.	0r	.
.	.	1d	tu-	.	.	.	.
[1F	glo-	.	.	.	.	.	.
.	.	4c\	.	.	.	.	.
.	.	4B-\	.	.	.	.	.
=44	=44	=44	=44	=44	=44	=44	=44
1F]	.	1A	.	0r	.	0r	.
1G	-ri-	1G	-a,	.	.	.	.
=45	=45	=45	=45	=45	=45	=45	=45
2F\	-a	1r	.	0r	.	0r	.
1G	tu-	.	.	.	.	.	.
.	.	[1d	glo-	.	.	.	.
4F\	.	.	.	.	.	.	.
4E-i\	.	.	.	.	.	.	.
=46	=46	=46	=46	=46	=46	=46	=46
1D	.	1d]	.	0r	.	0r	.
1C	-a,	1e-	-ri-	.	.	.	.
=47	=47	=47	=47	=47	=47	=47	=47
1r	.	2d\	-a	0r	.	0r	.
.	.	1e-i	tu-	.	.	.	.
[1G	glo-	.	.	.	.	.	.
.	.	4d\	.	.	.	.	.
.	.	4c\	.	.	.	.	.
=48	=48	=48	=48	=48	=48	=48	=48
1G]	.	1B-	.	0r	.	0r	.
1A-	-ri-	1c	-a,	.	.	.	.
=49	=49	=49	=49	=49	=49	=49	=49
2G\	-a	1r	.	0r	.	0r	.
1A-i	tu-	.	.	.	.	.	.
.	.	1F	glo-	.	.	.	.
4G\	.	.	.	.	.	.	.
4F\	.	.	.	.	.	.	.
=50	=50	=50	=50	=50	=50	=50	=50
1E-i	.	1G	-ri-	0r	.	0r	.
1F	-a,	1A	-a	.	.	.	.
=51	=51	=51	=51	=51	=51	=51	=51
2r	.	1B-	tu-	0r	.	0r	.
2BB-/	glo-	.	.	.	.	.	.
2C/	-ri-	2A/	.	.	.	.	.
2D\	-a	[2B-\	.	.	.	.	.
=52	=52	=52	=52	=52	=52	=52	=52
2.E-i\	tu-	4B-\]	.	0r	.	0r	.
.	.	4A/	.	.	.	.	.
.	.	4G/	.	.	.	.	.
4D\	.	4F/	.	.	.	.	.
4E-i\	.	4G/	.	.	.	.	.
4D\	.	4F/	.	.	.	.	.
4E-i\	.	[2c\	.	.	.	.	.
4C/	.	.	.	.	.	.	.
=53	=53	=53	=53	=53	=53	=53	=53
2.F\	.	4c\]	.	0r	.	0r	.
.	.	4B-\	.	.	.	.	.
.	.	4A/	.	.	.	.	.
4E-i\	.	4G/	.	.	.	.	.
4F\	.	4A/	.	.	.	.	.
4E-i\	.	4G/	.	.	.	.	.
4F\	.	[2d\	.	.	.	.	.
4D\	.	.	.	.	.	.	.
=54	=54	=54	=54	=54	=54	=54	=54
2.G\	.	4d\]	.	0r	.	0r	.
.	.	4c\	.	.	.	.	.
.	.	4B-\	.	.	.	.	.
4F\	.	4A/	.	.	.	.	.
2.D\	.	4B-\	.	.	.	.	.
.	.	4A/	.	.	.	.	.
.	.	[2d\	.	.	.	.	.
4E-i\	.	.	.	.	.	.	.
=55	=55	=55	=55	=55	=55	=55	=55
2.F\	.	2d\]	.	0r	.	0r	.
.	.	1c	.	.	.	.	.
4E-i\	.	.	.	.	.	.	.
4C/	.	.	.	.	.	.	.
4D\	.	.	.	.	.	.	.
4E-i\	.	[2B-\	.	.	.	.	.
4F\	.	.	.	.	.	.	.
=56	=56	=56	=56	=56	=56	=56	=56
2G\	.	2B-\]	.	0r	.	0r	.
1F	.	2A/	.	.	.	.	.
.	.	1G	.	.	.	.	.
2E\	.	.	.	.	.	.	.
=57	=57	=57	=57	=57	=57	=57	=57
0Fl	-a.	0Fl	-a.	0r	.	0r	.
!!LO:LB:i:g=z
=58||	=58||	=58||	=58||	=58||	=58||	=58||	=58||
*>D	*	*>D	*	*>D	*	*>D	*
*clefF4	*	*clefGv2	*	*clefGv2	*	*clefG2	*
*k[b-]	*	*k[b-]	*	*k[b-]	*	*k[b-]	*
*M3/1	*	*M3/1	*	*M3/1	*	*M3/1	*
*met(O|)	*	*met(O|)	*	*met(O|)	*	*met(O|)	*
!!!OMD: Osanna
!!section: Osanna
!	!	!LO:TX:Z=6:t=Canon at the lower 5th	!	!	!	!	!
0.r	.	0C	O-	0.r	.	1.e	O-
.	.	.	.	.	.	2f/	.
.	.	1C	-san-	.	.	1g	.
=59	=59	=59	=59	=59	=59	=59	=59
0FF	O-	0.F	-na,	1.A	O-	1a	-san-
.	.	.	.	.	.	2f/	.
.	.	.	.	2B-\	.	2g/	.
1FF	-san-	.	.	1c	.	1a	-na,
=60	=60	=60	=60	=60	=60	=60	=60
0.BB-	-na,	1r	.	1d	-san-	2r	.
.	.	.	.	.	.	1d	o-
.	.	1r	.	2B-\	.	.	.
.	.	.	.	2c\	.	2e/	.
.	.	1F	o-	1d	-na,	1f	.
=61	=61	=61	=61	=61	=61	=61	=61
1r	.	1E	-san-	2r	.	1.g	-san-
.	.	.	.	1G	o-	.	.
1r	.	0D	-na	.	.	.	.
.	.	.	.	2A/	.	1f	.
1BB-	o-	.	.	1B-	.	.	.
.	.	.	.	.	.	4e/	.
.	.	.	.	.	.	4d/	.
=62	=62	=62	=62	=62	=62	=62	=62
1AA	-san-	1C	in	1.c	-san-	2e/	.
.	.	.	.	.	.	2c/	.
0GG	-na	1G	ex-	.	.	2e/	.
.	.	.	.	4B-\	.	1d	.
.	.	.	.	4A/	.	.	.
.	.	1G	-cel-	1B-	.	.	.
.	.	.	.	.	.	2B-/	.
=63	=63	=63	=63	=63	=63	=63	=63
1FF	in	0.C	-sis,	2c\	.	2A/	.
.	.	.	.	2.A/	.	1c	.
1C	ex-	.	.	.	.	.	.
.	.	.	.	4G/	.	.	.
.	.	.	.	1F	.	2B-/	.
1C	-cel-	.	.	.	.	1G	.
.	.	.	.	2E/	.	.	.
=64	=64	=64	=64	=64	=64	=64	=64
0.FF	-sis,	1r	.	2.F/	-na,	1F	-na
.	.	.	.	4G/	.	.	.
.	.	1r	.	2A/	.	1r	.
.	.	.	.	2B-\	in	.	.
.	.	1F	ex-	2c\	ex-	1A	in
.	.	.	.	[2d\	-cel-	.	.
=65	=65	=65	=65	=65	=65	=65	=65
1r	.	1G	-cel-	4d\]	.	1B-	ex-
.	.	.	.	4c\	.	.	.
.	.	.	.	4B-\	.	.	.
.	.	.	.	4A/	.	.	.
1r	.	2E/	.	2G/	.	1c	-cel-
.	.	2F/	.	2A/	.	.	.
1BB-	ex-	1D	.	4B-\	.	1d	-sis,
.	.	.	.	4A/	.	.	.
.	.	.	.	4G/	.	.	.
.	.	.	.	4F/	.	.	.
=66	=66	=66	=66	=66	=66	=66	=66
1C	-cel-	1C	-sis,	2E/	.	2r	.
.	.	.	.	1C	-sis,	2e/	ex-
2AA/	.	1r	.	.	.	1f	-cel-
2BB-/	.	.	.	1D	in	.	.
1GG	.	1G	ex-	.	.	1g	-sis,
.	.	.	.	2E/	ex-	.	.
=67	=67	=67	=67	=67	=67	=67	=67
1FF	-sis,	1A	-cel-	2.F/	-cel-	2r	.
.	.	.	.	.	.	2c/	ex-
.	.	.	.	4G/	.	.	.
1r	.	2F/	.	2A/	.	1d	-cel-
.	.	2G/	.	2B-\	.	.	.
1C	ex-	1E	.	2G/	.	1e	-sis,
.	.	.	.	[2A/	.	.	.
=68	=68	=68	=68	=68	=68	=68	=68
1D	-cel-	1D	-sis,	4A/]	.	2r	.
.	.	.	.	4G/	.	.	.
.	.	.	.	4F/	.	2f/	ex-
.	.	.	.	4E/	.	.	.
2BB-/	.	1r	.	2D/	.	1g	-cel-
2C/	.	.	.	1E	-sis,	.	.
1AA	.	1c	ex-	.	.	1a	.
.	.	.	.	2F/	ex-	.	.
=69	=69	=69	=69	=69	=69	=69	=69
1GG	-sis,	1d	-cel-	4G/	-cel-	1b-	-sis,
.	.	.	.	4A/	.	.	.
.	.	.	.	4B-\	.	.	.
.	.	.	.	4c\	.	.	.
1r	.	2B-\	.	2d\	.	1g	in
.	.	2c\	.	2e\	.	.	.
1F	ex-	1A	.	2c\	.	1a	ex-
.	.	.	.	[2d\	.	.	.
=70	=70	=70	=70	=70	=70	=70	=70
1G	-cel-	1G	-sis,	2d\]	.	1b-	-cel-
.	.	.	.	2.e\	.	.	.
2E\	.	1r	.	.	.	2g/	.
.	.	.	.	4d\	.	.	.
2F\	.	.	.	1c	.	1a	.
1D	.	1F	o-	.	.	.	.
.	.	.	.	2B-\	.	2f/	.
=71	=71	=71	=71	=71	=71	=71	=71
1C	-sis,	0G	-san-	2c\	.	2e/	.
.	.	.	.	2G/	.	1g	.
1r	.	.	.	0B-	.	.	.
.	.	.	.	.	.	2f/	.
1BB-	o-	1F	.	.	.	1d	.
=72	=72	=72	=72	=72	=72	=72	=72
0C	-san-	1E	.	1A	-sis,	1c	-sis,
.	.	0D	-na	1.G	in	1r	.
1BB-	.	.	.	.	.	1g	in
.	.	.	.	2F/	ex-	.	.
=73	=73	=73	=73	=73	=73	=73	=73
1AA	.	1C	in	1F	-cel-	1a	ex-
0GG	-na	1G	ex-	1D	.	0b-	-cel-
.	.	1G	-cel-	1E	.	.	.
=74	=74	=74	=74	=74	=74	=74	=74
1FF	in	[0.Cl	-sis.	1F	.	2a/	.
.	.	.	.	.	.	1g	.
1C	ex-	.	.	0G	.	.	.
.	.	.	.	.	.	1f	.
1C	-cel-	.	.	.	.	.	.
.	.	.	.	.	.	2e/	.
=75	=75	=75	=75	=75	=75	=75	=75
0.FFl	-sis.	0.C]	.	0.Fl	-sis.	0.fl	-sis.
!!LO:LB:i:g=z
!!LO:TX:rj:i:t=fine
=76||	=76||	=76||	=76||	=76||	=76||	=76||	=76||
*>E	*	*>E	*	*>E	*	*>E	*
*clefF4	*	*clefGv2	*	*clefGv2	*	*clefG2	*
*k[b-]	*	*k[b-]	*	*k[b-]	*	*k[b-]	*
*M2/1	*	*M2/1	*	*M2/1	*	*M2/1	*
*met(C|)	*	*met(C|)	*	*met(C|)	*	*met(C|)	*
!!!OMD: Benedictus
!!section: Benedictus
0r	.	0r	.	0r	.	1.c	Be-
.	.	.	.	.	.	2B- 2d	.
=77	=77	=77	=77	=77	=77	=77	=77
0r	.	0r	.	0r	.	1c 1e	.
.	.	.	.	.	.	1A 1f	-ne-
=78	=78	=78	=78	=78	=78	=78	=78
0r	.	0r	.	0r	.	1B- 1g	-dic-
.	.	.	.	.	.	1c 1a	-tus,
=79	=79	=79	=79	=79	=79	=79	=79
0r	.	1.F	Be-	0r	.	2r	.
.	.	.	.	.	.	1a	be-
.	.	2G/	.	.	.	2g/	.
=80	=80	=80	=80	=80	=80	=80	=80
0r	.	1A	.	0r	.	2f/	.
.	.	.	.	.	.	2e/	.
.	.	1B-	-ne-	.	.	1d	-ne-
=81	=81	=81	=81	=81	=81	=81	=81
0r	.	1c	-dic-	0r	.	4c/	-dic-
.	.	.	.	.	.	4d/	.
.	.	.	.	.	.	4e/	.
.	.	.	.	.	.	4c/	.
.	.	1d	-tus,	.	.	1f	-tus,
=82	=82	=82	=82	=82	=82	=82	=82
0r	.	2r	.	0r	.	4f/	be-
.	.	.	.	.	.	4g/	.
.	.	1d	be-	.	.	4a/	.
.	.	.	.	.	.	4f/	.
.	.	.	.	.	.	2b-\	-ne-
.	.	2c\	-ne-	.	.	[2a/	-dic-
=83	=83	=83	=83	=83	=83	=83	=83
0r	.	2B-\	-dic-	0r	.	4a/]	.
.	.	.	.	.	.	4g/	.
.	.	2A/	.	.	.	1f	.
.	.	1G	.	.	.	.	.
.	.	.	.	.	.	2e/	.
=84	=84	=84	=84	=84	=84	=84	=84
0r	.	0Fl	-tus.	0r	.	0fl	-tus.
!!LO:LB:i:g=z
=85||	=85||	=85||	=85||	=85||	=85||	=85||	=85||
*>F	*	*>F	*	*>F	*	*>F	*
*clefF4	*	*clefGv2	*	*clefGv2	*	*clefG2	*
*k[b-]	*	*k[b-]	*	*k[b-]	*	*k[b-]	*
*M2/1	*	*M2/1	*	*M2/1	*	*M2/1	*
*met(C|)	*	*met(C|)	*	*met(C|)	*	*met(C|)	*
!!!OMD: Qui venit
!!section: Qui venit
1.F	Qui	0r	.	0F	Qui	0r	.
4E\	.	.	.	.	.	.	.
4D\	.	.	.	.	.	.	.
=86	=86	=86	=86	=86	=86	=86	=86
2E\	ve-	0r	.	1G	ve-	0r	.
2C/	.	.	.	.	.	.	.
2D\	.	.	.	1F	.	.	.
[2F\	.	.	.	.	.	.	.
=87	=87	=87	=87	=87	=87	=87	=87
2F\]	.	0r	.	1G	.	0r	.
2E\	.	.	.	.	.	.	.
1F	-nit,	.	.	2A/	.	.	.
.	.	.	.	2F/	.	.	.
=88	=88	=88	=88	=88	=88	=88	=88
2r	.	0r	.	1A	-nit,	0r	.
2.F\	qui	.	.	.	.	.	.
.	.	.	.	2r	.	.	.
4E\	.	.	.	.	.	.	.
4D\	.	.	.	2F/	qui	.	.
4C/	.	.	.	.	.	.	.
=89	=89	=89	=89	=89	=89	=89	=89
2BB-/	ve-	0r	.	2G/	ve-	0r	.
2D\	.	.	.	2F/	.	.	.
1C	-nit,	.	.	2G/	.	.	.
.	.	.	.	2A/	.	.	.
=90	=90	=90	=90	=90	=90	=90	=90
1.BB-	qui	0r	.	2B-\	.	0r	.
.	.	.	.	2F/	.	.	.
.	.	.	.	1B-	-nit,	.	.
2C/	.	.	.	.	.	.	.
=91	=91	=91	=91	=91	=91	=91	=91
2D\	.	0r	.	2F/	qui	0r	.
2E\	.	.	.	2G/	.	.	.
2F\	ve-	.	.	2F/	ve-	.	.
2BB-/	.	.	.	2G/	.	.	.
=92	=92	=92	=92	=92	=92	=92	=92
[0Fl	-nit.	0r	.	2A/	.	0r	.
.	.	.	.	2B-\	.	.	.
.	.	.	.	2c\	.	.	.
.	.	.	.	2F/	.	.	.
=93	=93	=93	=93	=93	=93	=93	=93
0F]	.	0r	.	0cl	-nit.	0r	.
!!LO:LB:i:g=z
=94||	=94||	=94||	=94||	=94||	=94||	=94||	=94||
*>G	*	*>G	*	*>G	*	*>G	*
*clefF4	*	*clefGv2	*	*clefGv2	*	*clefG2	*
*k[b-]	*	*k[b-]	*	*k[b-]	*	*k[b-]	*
*M2/1	*	*M2/1	*	*M2/1	*	*M2/1	*
*met(C|)	*	*met(C|)	*	*met(C|)	*	*met(C|)	*
!	!	!	!	!	!	!LO:TX:Z=6:t=Same music as the Benedictus	!
!!!OMD: In nomine
!!section: In nomine
0r	.	0r	.	0r	.	1.c	In
.	.	.	.	.	.	2B- 2d/	.
=96	=96	=96	=96	=96	=96	=96	=96
0r	.	0r	.	0r	.	1c 1e	.
.	.	.	.	.	.	1A 1f	no-
=96	=96	=96	=96	=96	=96	=96	=96
0r	.	0r	.	0r	.	1B- 1g	-mi-
.	.	.	.	.	.	1c 1a	-ne
=97	=97	=97	=97	=97	=97	=97	=97
0r	.	1.F	In	0r	.	2r	.
.	.	.	.	.	.	1a	in
.	.	2G/	.	.	.	2g/	.
=98	=98	=98	=98	=98	=98	=98	=98
0r	.	1A	.	0r	.	2f/	.
.	.	.	.	.	.	2e/	.
.	.	1B-	no-	.	.	1d	no-
=99	=99	=99	=99	=99	=99	=99	=99
0r	.	1c	-mi-	0r	.	4c/	-mi-
.	.	.	.	.	.	4d/	.
.	.	.	.	.	.	4e/	.
.	.	.	.	.	.	4c/	.
.	.	1d	-ne	.	.	1f	-ne
=100	=100	=100	=100	=100	=100	=100	=100
0r	.	2r	.	0r	.	4f/	do-
.	.	.	.	.	.	4g/	.
.	.	1d	do-	.	.	4a/	.
.	.	.	.	.	.	4f/	.
.	.	.	.	.	.	2b-\	.
.	.	2c\	.	.	.	[2a/	.
=101	=101	=101	=101	=101	=101	=101	=101
0r	.	2B-\	.	0r	.	4a/]	.
.	.	.	.	.	.	4g/	.
.	.	2A/	.	.	.	1f	.
.	.	1G	-mi-	.	.	.	.
.	.	.	.	.	.	2e/	-mi-
=102	=102	=102	=102	=102	=102	=102	=102
0r	.	0Fl	-ni.	0r	.	0fl	-ni.
!!LO:TX:i:Y=40:rj:t=Osanna ut supra
=||	=||	=||	=||	=||	=||	=||	=||
*-	*-	*-	*-	*-	*-	*-	*-
!!!RDF**kern: l=long note in original notation
!!!RDF**kern: i=editorial accidental
!!!ENC: Jesse Rodin; 2011/09/04
!!!END: 2011/09/04/
!!!SMS: Petrucci 1502
!!!EED: Jesse Rodin
!!!EEV: 2020/09/15/
!!attribution-level@Jos: 1 (secure, core group [checkmark])
!!!ONB: Translated from MusicXML and edited on 2011/10/03/ by Craig Sapp
!!muse2ps: T^@{OPR}^u^@{ONM}{. }@{OTL}^C^@{COM}^i2I150v90,90,90,120c122z18l2700t130
